**kern	**kern	**dynam
*part1	*part1	*part1
*staff2	*staff1	*
*I"Piano	*	*
*clefF4	*clefG2	*
*k[f#c#]	*k[f#c#]	*
=1	=1	=1
*^	*	*
!	!	!LO:TX:a:i:t=cresc.	!LO:DY:a
2Fn	(2FFn	(12AL	pp
.	.	12en	.
.	.	12cnJ	.
.	.	12aL	.
.	.	12e	.
.	.	12cJ)	.
=	=	=	=
(4F#X	2FF#X)	(12AL	.
.	.	12d#X	.
.	.	12BJ	.
4BB	.	12aL	.
.	.	12d#	.
.	.	12BJ)	.
=	=	=	=
2Fn)	(2FFn	(12AL	.
.	.	12e	.
.	.	12cnJ	.
.	.	12aL	.
.	.	12e	.
.	.	12cJ)	.
=	=	=	=
(4F#X	2FF#X)	(12AL	p
.	.	12d#X	.
.	.	12BJ	.
4BB	.	12aL	.
.	.	12d#	.
.	.	12BJ)	.
=	=	=	=
2Gn)	(2GGn	(12BL	.
.	.	12e#X	.
.	.	12dnJ	.
.	.	12bL	.
.	.	12e#	.
.	.	12dJ)	.
=	=	=	=
(4G#X	2GG#X)	(12BL	.
.	.	12e#X	.
.	.	12c#XJ	.
4C#	.	12bL	.
.	.	12e#	.
.	.	12c#J)	.
=	=	=	=
2Gn)	(2GGn	(12BL	mp
.	.	12e#X	.
.	.	12dJ	.
.	.	12bL	.
.	.	12e#	.
.	.	12dJ)	.
*v	*v	*	*
=	=	=
*-	*-	*-
!!!system-decoration: {(s1,s2)}
